X: 288
%
U:~=!turn!
T: Lady Bromes*
C:Robt. Macintosh
O:Scotland
B:Keith Norman MacDonald : "The Skye collection of the best reels & strathspeys extant" : 1887
Z:Ralph Palmer
R:Strathspey
M:C
L:1/8
K:C aeolian
G | E<CTc>=B c>CC>E | D<B,Td>c B>B,B,>D | E<CG<c =B>df>a | g>fTe>d e<cc>G | E<Cc>=B c>CC>E |
D<B,Td>c B>B,B,>D | E<CF>D G>EA>F | G<gd>f ecc || d | (e/d/c) G>c E>cG>c | B<fd>f b>fd>B |
(c/d/e/c/) G>c E>cG>c | =B>dG>g e<cc>d | (e/d/c) g>c G>cE>c | (B/c/d/e/) fd bBdf | g>eTd<c a>fe>d | gag fed ecc |]


